packages/tokens/icons/tip/size32Px.svg

<svg viewBox="0 0 32 32" fill="none" xmlns="http://www.w3.org/2000/svg" width="1em" height="1em"><circle cx="16" cy="16" r="13.5" stroke="currentColor" stroke-linecap="round"/><path d="M15.3043 25.2925C15.3043 25.6767 15.6158 25.9881 16 25.9881C16.3842 25.9881 16.6956 25.6767 16.6956 25.2925" stroke="currentColor" stroke-linecap="round" stroke-linejoin="round"/><path d="M15.1111 23.6113H16.8889" stroke="currentColor" stroke-linecap="round"/><path d="M21.0652 15.4297C21.0652 17.1685 20.2134 18.7037 18.9106 19.6327C18.6098 19.8472 18.3131 20.1195 18.0954 20.4725L17.7062 21.1038C17.4331 21.5469 16.9499 21.8167 16.4294 21.8167H15.5707C15.0502 21.8167 14.5669 21.5469 14.2938 21.1038L13.9046 20.4725C13.6869 20.1195 13.3903 19.8472 13.0895 19.6327L12.7992 20.0398L13.0895 19.6327C11.7867 18.7037 10.9348 17.1685 10.9348 15.4297C10.9348 12.588 13.2084 10.2949 16 10.2949C18.7916 10.2949 21.0652 12.588 21.0652 15.4297Z" stroke="currentColor"/><path d="M9.04346 15.0122L7.99998 15.0122" stroke="currentColor" stroke-linecap="round"/><path d="M10.0869 10.8384L9.04344 9.7949" stroke="currentColor" stroke-linecap="round"/><path d="M24 15.0122L22.9565 15.0122" stroke="currentColor" stroke-linecap="round"/><path d="M22.9565 9.7949L21.9131 10.8384" stroke="currentColor" stroke-linecap="round"/><path d="M16 7.01202L16 8.40332" stroke="currentColor" stroke-linecap="round"/></svg>

<svg xmlns="http://www.w3.org/2000/svg" fill="none" viewBox="0 0 32 32" width="1em" height="1em"><circle cx="16" cy="16" r="13.5" stroke="currentColor" stroke-linecap="round"/><path stroke="currentColor" stroke-linecap="round" stroke-linejoin="round" d="M15.304 25.293a.696.696 0 0 0 1.392 0"/><path stroke="currentColor" stroke-linecap="round" d="M15.111 23.611h1.778"/><path stroke="currentColor" d="M21.065 15.43a5.149 5.149 0 0 1-2.154 4.203 2.938 2.938 0 0 0-.816.84l-.389.63a1.5 1.5 0 0 1-1.277.714h-.858a1.5 1.5 0 0 1-1.277-.713l-.39-.631a2.952 2.952 0 0 0-.815-.84l-.29.407.29-.407a5.149 5.149 0 0 1-2.154-4.203c0-2.842 2.273-5.135 5.065-5.135 2.792 0 5.065 2.293 5.065 5.135Z"/><path stroke="currentColor" stroke-linecap="round" d="M9.043 15.012H8m2.087-4.174L9.043 9.795M24 15.012h-1.044m0-5.217-1.043 1.043M16 7.012v1.391"/></svg>
